www/assets/icons/shopping_cart_checkout.svg

<svg xmlns="http://www.w3.org/2000/svg" width="24" height="24" viewBox="0 0 24 24" fill='currentColor'><path d="M8 18c-1.1 0-1.99.9-1.99 2S6.9 22 8 22s2-.9 2-2-.9-2-2-2m10 0c-1.1 0-1.99.9-1.99 2s.89 2 1.99 2 2-.9 2-2-.9-2-2-2m-8.9-5h7.45c.75 0 1.41-.41 1.75-1.03L22 4.96 20.25 4l-3.7 7H9.53L5.27 2H2v2h2l3.6 7.59-1.35 2.44C5.52 15.37 6.48 17 8 17h12v-2H8zM13 2l4 4-4 4-1.41-1.41L13.17 7H9V5h4.17l-1.59-1.59z"/></svg>

<svg width="24" height="24" viewBox="0 0 24 24" xmlns="http://www.w3.org/2000/svg" fill='currentColor'><path d="M8 18C6.9 18 6.01 18.9 6.01 20C6.01 21.1 6.9 22 8 22C9.1 22 10 21.1 10 20C10 18.9 9.1 18 8 18ZM18 18C16.9 18 16.01 18.9 16.01 20C16.01 21.1 16.9 22 18 22C19.1 22 20 21.1 20 20C20 18.9 19.1 18 18 18ZM9.1 13H16.55C17.3 13 17.96 12.59 18.3 11.97L22 4.96L20.25 4L16.55 11H9.53L5.27 2H2V4H4L7.6 11.59L6.25 14.03C5.52 15.37 6.48 17 8 17H20V15H8L9.1 13ZM13 2L17 6L13 10L11.59 8.59L13.17 7H9V5H13.17L11.58 3.41L13 2Z"/></svg>
